xiaohongshu.svg

<svg viewBox="0 0 24 24" xmlns="http://www.w3.org/2000/svg"><path d="M3.05868 7.78461C3.58151 7.78461 4.10549 7.78461 4.62832 7.78461C4.64329 10.1097 4.63753 12.436 4.63869 14.7611C4.64675 15.2367 4.52352 15.7653 4.11931 16.0624C3.67479 16.4079 3.08286 16.2927 2.56003 16.3123C2.35274 15.8666 2.15236 15.4175 1.96695 14.9614C2.24334 14.9614 2.51972 14.9684 2.79496 14.9522C2.87104 14.9555 2.94424 14.9228 2.9925 14.8639C3.04076 14.805 3.05846 14.7268 3.04025 14.6528C3.05176 12.3623 3.0391 10.0729 3.05868 7.78461ZM9.5169 7.68097C10.0559 7.67291 10.5948 7.68097 11.1292 7.68097C10.8482 8.39842 10.4497 9.07442 10.2309 9.81145C10.6823 10.0026 11.2386 9.84254 11.728 9.90012C11.3261 10.8398 10.877 11.76 10.4981 12.7112C10.8436 12.7814 11.2075 12.7561 11.5633 12.7561C11.3675 13.2041 11.1672 13.6486 10.9679 14.0943C10.3576 14.0839 9.74607 14.1196 9.13687 14.0782C8.8006 14.0782 8.49312 13.7327 8.61634 13.3964C8.8386 12.7147 9.18524 12.0824 9.44896 11.4168C9.06893 11.3915 8.61404 11.4997 8.30426 11.2187C8.06242 10.978 8.20292 10.6256 8.31693 10.3596C8.7246 9.46903 9.12459 8.57615 9.5169 7.68097ZM17.8949 7.68673C18.4258 7.68673 18.9578 7.68673 19.4887 7.68673L19.4887 8.28556C20.2534 8.25562 21.1436 8.25792 21.6963 8.87749C22.2894 9.53276 22.0971 10.4782 22.1316 11.2821C22.7074 11.2924 23.3512 11.4283 23.707 11.9281C24.1251 12.5177 23.9604 13.2789 23.9938 13.9526C23.9719 14.5941 24.1308 15.3691 23.6011 15.8597C23.0437 16.462 22.1501 16.2777 21.4188 16.3203C21.1965 15.8701 21.0065 15.406 20.8107 14.9442C21.2553 14.9315 21.6998 14.9614 22.1432 14.9292C22.2865 14.9206 22.3958 14.7974 22.3873 14.654C22.4086 14.2289 22.4086 13.803 22.3873 13.378C22.3954 13.0774 22.0833 12.8862 21.8115 12.9093C21.0353 12.8978 20.2603 12.9093 19.4841 12.9093C19.4841 14.0448 19.4841 15.1799 19.4841 16.3146C18.952 16.3146 18.4211 16.3146 17.8891 16.3146C17.8891 15.1791 17.8891 14.0425 17.8891 12.907C17.3582 12.907 16.8262 12.907 16.2953 12.907C16.2953 12.3738 16.2953 11.8406 16.2953 11.3062C16.825 11.3062 17.3559 11.3062 17.8856 11.2982C17.8956 10.8375 17.8956 10.3738 17.8856 9.90703C17.5333 9.90127 17.1809 9.89666 16.8273 9.90012C16.8273 9.3627 16.8273 8.82797 16.8273 8.29593C17.1797 8.29593 17.5321 8.29593 17.8845 8.29593L17.8949 7.68673ZM19.4806 9.89551C19.4806 10.3638 19.4841 10.8322 19.491 11.3005C19.8491 11.3005 20.2084 11.3005 20.5666 11.3005C20.5666 10.879 20.5942 10.4563 20.5505 10.0337C20.2868 9.75502 19.8261 9.94503 19.4806 9.89551ZM12.2036 8.28787C13.422 8.28787 14.6393 8.28787 15.8565 8.28787C15.8565 8.82221 15.8565 9.35771 15.8565 9.89206C15.5214 9.89206 15.1874 9.89206 14.8523 9.89206C14.8523 11.4959 14.8523 13.0993 14.8523 14.7023C15.3648 14.7081 15.8784 14.7023 16.3909 14.7081C16.3909 15.2409 16.3909 15.7745 16.3909 16.3088C14.6082 16.3088 12.8209 16.3088 11.0428 16.3088C11.2835 15.7745 11.5253 15.2401 11.7729 14.7081C12.2508 14.7081 12.7299 14.7081 13.2078 14.7023C13.2078 13.1004 13.2078 11.4974 13.2078 9.89551C12.8738 9.89551 12.541 9.89551 12.2071 9.89551C12.2025 9.35809 12.2013 8.82221 12.2036 8.28787ZM22.7236 8.43527C23.1266 8.1013 23.7957 8.32011 23.9466 8.81185C24.1389 9.26328 23.7784 9.82181 23.2994 9.86557C23.0011 9.89206 22.7017 9.87709 22.4034 9.87594C22.423 9.39341 22.2767 8.77039 22.7236 8.43527ZM0.390396 9.88976C0.916681 9.88976 1.44182 9.89782 1.96695 9.87709C1.9347 10.7765 1.83451 11.6736 1.77809 12.5719C1.71129 13.6279 1.47176 14.715 0.826856 15.5776C0.538953 14.9695 0.269477 14.3534 0 13.735C0.0831935 13.5106 0.134367 13.2757 0.152012 13.0371C0.224564 11.9949 0.306327 10.94 0.390396 9.88976ZM5.69932 9.88976C6.22983 9.88976 6.76072 9.88976 7.29199 9.88976C7.37261 10.9366 7.45552 11.9834 7.53153 13.0302C7.54748 13.2724 7.59869 13.511 7.68354 13.7384C7.41406 14.3545 7.14228 14.9695 6.85784 15.581C6.2613 14.7852 6.0091 13.7903 5.92503 12.8171C5.84096 11.844 5.77647 10.864 5.69932 9.88976ZM7.67548 16.1879C7.91885 15.6505 8.16453 15.115 8.41251 14.5814C9.23361 14.7922 10.0858 14.6724 10.923 14.7046C10.6835 15.2413 10.4382 15.7756 10.1917 16.3088C9.35452 16.2639 8.49082 16.4286 7.67548 16.1879Z" fill="#ff2741"/></svg>

<svg viewBox="0 0 24 24" xmlns="http://www.w3.org/2000/svg"><path d="M3.059 7.785h1.57c.014 2.325.009 4.651.01 6.976.008.476-.115 1.004-.52 1.301-.444.346-1.036.23-1.559.25a29.968 29.968 0 0 1-.593-1.35c.276 0 .553.006.828-.01a.242.242 0 0 0 .245-.3c.012-2.29 0-4.58.019-6.867Zm6.458-.104c.539-.008 1.078 0 1.612 0-.28.717-.68 1.393-.898 2.13.451.192 1.008.032 1.497.09-.402.939-.851 1.859-1.23 2.81.346.07.71.045 1.065.045-.196.448-.396.893-.595 1.338-.61-.01-1.222.026-1.831-.016-.336 0-.644-.345-.52-.682.222-.681.568-1.314.832-1.98-.38-.024-.835.084-1.145-.197-.242-.241-.101-.593.013-.86.408-.89.808-1.783 1.2-2.678Zm8.378.006h1.594v.599c.764-.03 1.655-.028 2.207.591.593.656.401 1.601.436 2.405.575.01 1.22.146 1.575.646.418.59.253 1.35.287 2.025-.022.641.137 1.416-.393 1.907-.557.602-1.45.418-2.182.46-.223-.45-.413-.914-.608-1.376.444-.013.889.017 1.332-.015a.26.26 0 0 0 .244-.275c.022-.425.022-.851 0-1.276.008-.3-.304-.492-.576-.469-.776-.011-1.55 0-2.327 0v3.406H17.89v-3.408h-1.594v-1.6c.53 0 1.06 0 1.59-.009.01-.46.01-.924 0-1.391-.352-.006-.704-.01-1.058-.007V8.296h1.057l.01-.61Zm1.586 2.209c0 .468.003.936.01 1.404h1.076c0-.421.027-.844-.017-1.266-.263-.279-.724-.089-1.07-.138Zm-7.277-1.608h3.652v1.604h-1.004v4.81c.513.006 1.026 0 1.539.006v1.6h-5.348c.24-.534.482-1.068.73-1.6.478 0 .957 0 1.435-.006V9.896h-1c-.005-.538-.007-1.074-.004-1.608Zm10.52.147c.403-.334 1.072-.115 1.223.377.192.451-.169 1.01-.648 1.054-.298.026-.597.011-.896.01.02-.483-.126-1.106.32-1.44ZM.39 9.89c.527 0 1.052.008 1.577-.013-.032.9-.132 1.797-.189 2.695-.067 1.056-.306 2.143-.951 3.006A64.662 64.662 0 0 1 0 13.735c.083-.224.134-.46.152-.698.073-1.042.154-2.097.238-3.147Zm5.31 0h1.592c.08 1.047.164 2.093.24 3.14.015.242.067.481.152.708-.27.617-.542 1.232-.826 1.843-.597-.796-.849-1.79-.933-2.764-.084-.973-.149-1.953-.226-2.927Zm1.975 6.298c.244-.537.49-1.073.738-1.607.82.211 1.673.091 2.51.124-.24.536-.485 1.07-.731 1.604-.837-.045-1.701.12-2.517-.121Z" fill="#ff2741"/></svg>
